X:1
T:McAlpine's Fusiliers
M:4/4
L:1/2
K:D
 A/2| d3/2 c/2| B A/2 F/2| E D| B, D/2 E/2| F/2 F3/2| E3/2 C/2| D/2 D3/2-|\
 D3/2| A/2| A3/2 F/2| A B/2 B/2| d c| B3/2 A/2| B/2- c/2 B/2 A/2| F A|\
 B/2 B3/2-| B3/2| A/2| A F| A B/2 c/2| d c| B3/2 A/2| B A| F A| B2-|\
 B| B/2- c/2| d3/2 c/2| B A/2 F/2| E D| B, D/2 E/2| F/2 F3/2| E3/2 D/2|\
 D2-| D3/2||
